X:1
T:Title
%%score ( 1 2 ) { 3 | 4 }
L:1/8
Q:1/4=105
M:4/4
K:G
V:1 treble nm="Grand Piano, Soprano"
V:2 treble 
V:3 bass nm="Choir Pad, Montauban, John H. Tenney"
V:4 bass 
V:1
 D2 [DG]2- [DG][GB] [FA]2 | [EG][FA][GB][Gd]- [Gd]3- [Gd]/ z/ | [Ge]2 [Gd]2- [Gd][GB] [GB]2 | %3
w: By~John~Harrison~Tenney,~1896 * * * *|||
 [GA]G [FA]6 | D2 [DG]2- [DG][GB] [FA]2 | [EG][FA][GB][Gd]- [Gd]3- [Gd]/ z/ | %6
w: |||
 [Ge]2 [Gd]2- [Gd][GB] [FA]2 | GA [DG]6 | z2 [FA]2- [FA][FA]AG | [GB][FA]G[GB]- [GB]3- [GB]/ z/ | %10
w: ||||
 [Ge]2 [Gd]2- [Gd][Fc] [GB]2 | [DA][EG] [FA]6 | D2 [DG]2- [DG][GB] [FA]2 | %13
w: |||
 [EG][FA][GB][Gd]- [Gd]3- [Gd]/ z/ | [Ge]2 [Gd]2- [Gd][GB] [FA]2 | GA [DG]6- | [DG]2 z2 z4 |] %17
w: ||||
V:2
 x8 | x8 | x8 | x8 | x8 | x8 | x8 | D2 z2 z4 | x8 | x8 | x8 | x8 | x8 | x8 | x8 | D2 z2 z4 | x8 |] %17
V:3
 B,2 B,2- B,D D2 | D2 DB,- B,3- B,/ z/ | C2 B,2- B,[K:treble]D D2 | ^C2 D6 | C2 B,2- B,D D2 | %5
 D2 D[K:bass]B,- B,3- B,/ z/ | C2 B,2- B,[K:treble]D C2 | B,C B,6 | z2 C2- CCCB, | %9
 DCB,D- D3- D/ z/ | C2 D2- DD D2 | D^C D6 | C2 B,2- B,D D2 | D2 D[K:bass]B,- B,3- B,/ z/ | %14
 C2 B,2- B,[K:treble]D C2 | B,C B,6- | B,2 z2 z4 |] %17
V:4
 G,2 G,2- G,G, D,2 | D,2 G,G,- G,3- G,/ z/ | G,2 G,2- G,G, G,2 | E,2 D,6 | F,2 G,2- G,G, D,2 | %5
 D,2 G,G,- G,3- G,/ z/ | C,2 D,2- D,D, D,2 | D,2 G,,6 | z2 D,2- D,D, D,2 | D,2 G,G,- G,3- G,/ z/ | %10
 z2 B,2- B,A, G,2 | F,E, D,6 | F,2 G,2- G,G, D,2 | D,2 G,G,- G,3- G,/ z/ | C,2 D,2- D,D, D,2 | %15
 D,2 G,,6- | G,,2 z2 z4 |] %17

